X: 032
M: C
L: 1/8
K: D
V: 1
     d>dAd FdDd | d>dfd {c}~B2Bc | d>fcA BdAF | E<B,B,C D3 |]
V: 2 clef=bass middle=d
z | d2D2 A2G2 | G2G2 g2d2 | D2d2 e2d2 | g2a2 d2D :|
z | D2d2 D2d2 | D2d2 g2G2 | d2a2 g2f2 | g2a2 d2z2 |
    D2d2 D2d2 | D2d2 g2G2 | d2a2 g2f2 | g2a2 d2D |]


